icons/feed-trophy-16.svg

<svg width="16" height="16" viewBox="0 0 16 16" fill="none" xmlns="http://www.w3.org/2000/svg">
<path d="M11 5H12V6.14593C12 6.55484 11.751 6.92255 11.3714 7.07441L11 7.22297V5Z" fill="#24292F"/>
<path d="M5 7.22297L4.62861 7.07441C4.24895 6.92255 4 6.55484 4 6.14593V5H5V7.22297Z" fill="#24292F"/>
<path fill-rule="evenodd" clip-rule="evenodd" d="M8 16C12.4183 16 16 12.4183 16 8C16 3.58172 12.4183 0 8 0C3.58172 0 0 3.58172 0 8C0 12.4183 3.58172 16 8 16ZM3 5C3 4.44772 3.44772 4 4 4H12C12.5523 4 13 4.44772 13 5V6.14593C13 6.96374 12.5021 7.69916 11.7428 8.00289L10.8783 8.34869C10.5659 9.40976 9.68274 10.2264 8.58412 10.4432C8.7804 11.4045 9.34243 12 10.5 12C10.7761 12 11 12.2239 11 12.5C11 12.7761 10.7761 13 10.5 13H5.5C5.22386 13 5 12.7761 5 12.5C5 12.2239 5.22386 12 5.5 12L5.5022 12C6.65828 11.9992 7.21972 11.4039 7.41588 10.4432C6.31726 10.2264 5.43411 9.40976 5.12173 8.34869L4.25722 8.00289C3.4979 7.69916 3 6.96374 3 6.14593V5Z" fill="#24292F"/>
</svg>

<svg xmlns="http://www.w3.org/2000/svg" width="16" height="16" viewBox="0 0 16 16"><path d="M11 5h1v1.146a1 1 0 01-.629.928L11 7.223V5zM5 7.223l-.371-.149A1 1 0 014 6.146V5h1v2.223z"/><path fill-rule="evenodd" d="M8 16A8 8 0 108 0a8 8 0 000 16zM3 5a1 1 0 011-1h8a1 1 0 011 1v1.146a2 2 0 01-1.257 1.857l-.865.346a3.005 3.005 0 01-2.294 2.094C8.78 11.405 9.342 12 10.5 12a.5.5 0 010 1h-5a.5.5 0 010-1h.002c1.156 0 1.718-.596 1.914-1.557A3.005 3.005 0 015.122 8.35l-.865-.346A2 2 0 013 6.146V5z"/></svg>
